img/header__lk.svg

<svg width="30" height="30" viewBox="0 0 30 30" fill="none" xmlns="http://www.w3.org/2000/svg">
<path d="M25.2669 19.1136C23.3744 17.221 21.0514 15.9156 18.5188 15.288C21.1986 13.9799 23.0492 11.2268 23.0492 8.04957C23.0492 3.61102 19.4382 0 14.9996 0C10.5611 0 6.95013 3.61102 6.95013 8.04957C6.95013 11.2269 8.8007 13.9799 11.4805 15.288C8.94789 15.9156 6.62493 17.221 4.73241 19.1136C1.98987 21.856 0.479492 25.5023 0.479492 29.3808C0.479492 29.7227 0.7567 30 1.09871 30H28.9006C29.2426 30 29.5198 29.7228 29.5198 29.3808C29.5198 25.5023 28.0095 21.856 25.2669 19.1136ZM8.18851 8.04951C8.18851 4.29382 11.244 1.23832 14.9997 1.23832C18.7554 1.23832 21.8109 4.29382 21.8109 8.04951C21.8109 11.8052 18.7554 14.8607 14.9997 14.8607C11.244 14.8607 8.18851 11.8051 8.18851 8.04951ZM1.73217 28.7616C2.05649 21.7241 7.88353 16.0991 14.9997 16.0991C22.1159 16.0991 27.9429 21.7241 28.2672 28.7616H1.73217Z" fill="black"/>
<path d="M9.6489 19.1958C9.47347 18.9021 9.09331 18.8064 8.79981 18.9818C6.01438 20.6458 3.98387 23.4017 3.22918 26.5427C3.14932 26.8753 3.35405 27.2095 3.68657 27.2895C3.7352 27.3012 3.78383 27.3068 3.83176 27.3068C4.11137 27.3068 4.36508 27.1159 4.43317 26.8321C5.11063 24.013 6.9336 21.5392 9.43485 20.045C9.72841 19.8696 9.82421 19.4894 9.6489 19.1958Z" fill="black"/>
<path d="M14.9996 17.2754C14.0519 17.2754 13.108 17.3854 12.1941 17.6023C11.8614 17.6813 11.6557 18.015 11.7347 18.3478C11.8022 18.6324 12.0562 18.8241 12.3366 18.8241C12.3839 18.8241 12.432 18.8186 12.48 18.8073C13.3005 18.6125 14.1481 18.5138 14.9996 18.5138C15.3416 18.5138 15.6188 18.2366 15.6188 17.8946C15.6188 17.5526 15.3416 17.2754 14.9996 17.2754Z" fill="black"/>
</svg>

<svg width="30" height="30" fill="none" xmlns="http://www.w3.org/2000/svg"><path d="M25.267 19.114a14.428 14.428 0 00-6.748-3.826 8.06 8.06 0 004.53-7.238C23.05 3.61 19.44 0 15 0c-4.438 0-8.05 3.611-8.05 8.05a8.06 8.06 0 004.53 7.238 14.428 14.428 0 00-6.748 3.826A14.425 14.425 0 00.48 29.38a.62.62 0 00.62.619h27.8a.62.62 0 00.619-.62 14.42 14.42 0 00-4.253-10.266zM8.189 8.05a6.819 6.819 0 016.81-6.812 6.819 6.819 0 016.812 6.812A6.819 6.819 0 0115 14.86a6.819 6.819 0 01-6.811-6.81zM1.732 28.762C2.056 21.724 7.884 16.099 15 16.099c7.116 0 12.943 5.625 13.267 12.663H1.732z" fill="#000"/><path d="M9.649 19.196a.62.62 0 00-.85-.214 12.18 12.18 0 00-5.57 7.56.62.62 0 001.204.29 10.933 10.933 0 015.002-6.787.62.62 0 00.214-.85zM15 17.275c-.948 0-1.892.11-2.806.327a.62.62 0 00.286 1.205 10.92 10.92 0 012.52-.293.62.62 0 100-1.239z" fill="#000"/></svg>
